X:1
T:Title
%%score [ 1 2 3 4 ]
L:1/8
Q:1/4=120
M:2/2
K:F
V:1 treble nm="Soprano"
V:2 alto2 nm="Alto"
V:3 alto nm="Tenor"
V:4 bass3 nm="Bass"
V:1
 c8 | z8 | c4 d2 B2 | c3 B A2 B2 | G2 G3 F F2- | F2 E2 F2 A2 | B2 G2 A3 G | F2 G2 E2 A2- | %8
w: ||Ia- mais ie|neuz _ _ tant|de sou- * *|* * las ia-|mais ie neuz _|_ tant de sou-|
 AG F4 E2 | F4 z4 | z2 c2 c2 c2 | f2 d2 edcB | A2 A2 A2 A2 | d4 d2 d2 | d2 g3 fed | %15
w: |las|que quant de|vous _ prins _ _ _|_ que quant de|vous prins ac-|coin- tan- * * *|
 c3 B/A/ B c2 =B | c4 z2 c2 | A2 c2 F2 A2 | B2 B2 A4 | z2 G2 G2 G2 | E2 A2 A2 G2 | A4 z2 c2 | %22
w: |ce soub-|dain me prins en-|tre voz lacz|soub- dain me|prins en- tre voz|lacz dont|
 c3 B A2 G2 | F3 G A2 A2- | A2 G2 F4 | E2 c2 c3 B | A2 G2 F2 G2 |"^#" A2 G4 ^F2 | G2 B2 B2 A2 | %29
w: main- * * tes|fois _ _ iay|_ dict he-|las dont main- *|* tes fois iay|dict he- *|las iay dict he-|
 G8 | z2 F2 F2 E2 | F3 G A2 B2 | G4 A4 | z2 B2 B2 A2 | B2 B2 B2 A2 | G2 BA GF G2- | GF F4 E2 | %37
w: las|mon po- vre|cueur est en souf-|fran- ce|mon po- vre|cueur est en souf-|fran- * * * * *||
 F8 |] %38
w: ce.|
V:2
 F8 | F4 G2 E2 | F3 E D2 _E2 | C2 G3 F F2- | F2 E2 D4 | C2 C4 D2 | B,2 C3 B, A,2 | B,2 G,2 A,4 | %8
w: |Ia- mais ie|neuz _ _ tant|de sou- * *|* * las|ia- mais ie|neuz tant _ _|de sou- las|
 z4 z2 C2 | C2 C2 F2 F2 | E3 D C4 | z2 G2 G2 G2 | c4 z2 F2 | F2 F2 B4- | B2 G2 G2 G2 | A4 G2 G2 | %16
w: que|quant de vous que|suant de vous|que quant de|vous que|quant de vous|_ prins ac- coin-|tan- ce soub-|
 E2 G2 C4- | C4 z2 C2 | D2 E2 F4 | D4 E2 D2 | C2 E2 F2 E2 | C2 C2 C3 B, | A,4 z4 | z2 F2 F2 E2 | %24
w: dain me prins|_ soub-|dain me prins|en- tre voz|_ _ _ _|lacz dont main- tes|fois|dont main- tes|
 D2 D2 D2 C2 | C2 G2 G3 F | E3 D C2 D2 | F2 E2 D4- | D2 D2 E2 F2 | D4 z2 C2 | C2 B,2 C3 B, | %31
w: fois iay dict he-|las dont main- tes|fois _ _ iay|dict he- las|_ iay dict he-|las mon|po- vre cueur _|
 A,4 z4 | z4 z2 F2 | F2 E2 F2 F2 | G3 F E2 F2 | D4 E4 | D2 D2 C4 | A,8 |] %38
w: _|mon|po- vre cueur est|en _ _ souf-|fran- ce|[en souf- fran-|ce]|
V:3
 C8 | z8 | z8 | C4 D2 B,2 | C3 B, A,2 B,2 | G,4 F,4 | z4 C4 | D2 B,2 C3 B, | A,2 B,2 G,4 | %9
w: |||Ia- mais ie|neuz _ tant de|sou- las|ia-|mais ie neuz _|tant de sou-|
 F,4 z2 C2 | C2 C2 F2 E2 | D4 z2 C2 | C2 C2 F4 | z2 D2 D2 D2 | G3 F E2 C2 | E2 F2 D4 | C4 z4 | %17
w: las que|quant de vous _|prins que|quant de vous|que quant de|vous _ _ prins|ac- coin- tan-|ce|
 F4 D2 F2 | B,3 C D2 C2- | C2 B,2 C2 B,2 | G,2 C2 B,4 | A,8 | z2 F2 F2 E2 | D2 D2 C3 B, | %24
w: soub- dain me|prins _ _ en-|* tre voz _|_ _ _|lacz|dont main- tes|fois iay dict _|
 A,2 B,2 A,4 | G,2 E2 E3 D | C6 B,2 | C2 B,2 A,4 | G,4 z2 C2 | C2 B,2 C3 B, | A,2 F,2 G,4 | %31
w: _ he- *|las dont main- tes|fois iay|dict he- *|las mon|po- vre cueur est|en souf- fran-|
 F,4 z2 F2 | F2 E2 F2 C2 | C2 B,2 C2 C2 | _E2 D2 B,2 C2 | C2 B,2 C3 B, | A,2 B,2 G,4 | F,8 |] %38
w: ce mon|po- vre cueur mon|po- vre cueur est|en souf- fran- *|ce est en _|_ souf- fran-|ce.|
V:4
 C,8 | z8 | z8 | z8 | C,4 D,2 B,,2 | C,4 z2 F,2 | G,2 E,2 F,3 E, | D,2 _E,2 C,2 F,2- | %8
w: ||||Ia- mais ie|neuz ia-|mais ie neuz _|_ tant de sou-|
 F,2 B,,2 C,4 | z2 F,2 F,G,A,B, | C2 A,3 B, C2- | C2 B,2 C4 | z2 F,2 F,2 F,2 | B,4 z2 G,2 | %14
w: * * las|que quant _ _ _|_ _ _ _|* de vous|que quant de|vous que|
 G,2 G,2 C3 B, | A,2 F,2 G,4 | C,2 C2 A,2 C2 | F,2 A,2 B,2 A,2 | G,4 F,4 | G,4 E,2 G,2 | %20
w: quant de vous prins|ac- coin- tan-|ce soub- dain me|prins en- tre voz|_ lacz|[soub- dain me|
 C,2 C,2 D,2 E,2 | F,8- | F,4 z2 C2 | C2 B,2 A,3 G, | F,2 G,2 D,2 F,2 | C,4 z2 C2 | C3 B, A,2 G,2 | %27
w: prins en- tre voz|lacz]|_ dont|main- tes fois _|_ iay dict he-|las dont|main- tes fois iay|
 F,2 G,2 D,4 | z2 G,2 G,2 F,2 | G,3 F, E,2 C,2 | D,4 C,4 | z2 C2 C2 B,2 | C4 z2 F,2 | A,2 G,2 F,4 | %34
w: dict he- las|mon po- vre|cueur est en souf-|fran- ce|mon po- vre|cueur mon|po- vre cueur|
 z2 G,2 G,2 F,2 | G,3 F, E,2 C,2 | D,2 B,,2 C,4 | F,8 |] %38
w: mon po- vre|cueur _ _ est|en souf- fran-|ce.|

